svg/folder_cancel.svg

<svg xmlns="http://www.w3.org/2000/svg" viewBox="0 0 24 24"><path d="M12 18.5c0 .5.07 1 .18 1.5H4a2 2 0 0 1-2-2V6c0-1.11.89-2 2-2h6l2 2h8a2 2 0 0 1 2 2v5.04c-1-.65-2.21-1.04-3.5-1.04a6.5 6.5 0 0 0-6.5 6.5m11 0c0 2.5-2 4.5-4.5 4.5S14 21 14 18.5s2-4.5 4.5-4.5 4.5 2 4.5 4.5m-3 2.58L15.92 17c-.27.42-.42.94-.42 1.5 0 1.66 1.34 3 3 3 .56 0 1.08-.15 1.5-.42m1.5-2.58c0-1.66-1.34-3-3-3-.56 0-1.08.15-1.5.42L21.08 20c.27-.42.42-.94.42-1.5"/></svg>

<svg xmlns="http://www.w3.org/2000/svg" id="mdi-folder-cancel" viewBox="0 0 24 24"><path d="M12 18.5C12 19 12.07 19.5 12.18 20H4C2.9 20 2 19.11 2 18V6C2 4.89 2.89 4 4 4H10L12 6H20C21.1 6 22 6.89 22 8V13.04C21 12.39 19.79 12 18.5 12C14.91 12 12 14.91 12 18.5M23 18.5C23 21 21 23 18.5 23S14 21 14 18.5 16 14 18.5 14 23 16 23 18.5M20 21.08L15.92 17C15.65 17.42 15.5 17.94 15.5 18.5C15.5 20.16 16.84 21.5 18.5 21.5C19.06 21.5 19.58 21.35 20 21.08M21.5 18.5C21.5 16.84 20.16 15.5 18.5 15.5C17.94 15.5 17.42 15.65 17 15.92L21.08 20C21.35 19.58 21.5 19.06 21.5 18.5Z" /></svg>
